icons/1_Primary/Shortcut.svg

<svg width="1024" height="1024" fill="none" xmlns="http://www.w3.org/2000/svg"><g clip-path="url(#a)"><path d="M512 1024c282.77 0 512-229.23 512-512S794.77 0 512 0 0 229.23 0 512s229.23 512 512 512Z" fill="#9ABEFF"/><path d="M729 403.5A108.5 108.5 0 0 0 620.5 295h-217a108.173 108.173 0 0 0-76.72 31.77 108.521 108.521 0 0 0 0 153.45l38.64 38.64A108.518 108.518 0 0 0 403.5 729h217a108.146 108.146 0 0 0 76.72-31.78 108.508 108.508 0 0 0 0-153.45l-38.64-38.64a108.53 108.53 0 0 0 51.096-39.808A108.532 108.532 0 0 0 729 403.5Zm-372.44 264a66.406 66.406 0 0 1-14.909-71.068 66.406 66.406 0 0 1 59.079-42.222l132.73 132.71h-130a66 66 0 0 1-46.94-19.46l.04.04Zm310.9-93.91a66.385 66.385 0 0 1 19.451 46.952 66.38 66.38 0 0 1-5.053 25.41 66.39 66.39 0 0 1-61.344 40.994A66.415 66.415 0 0 1 573.56 667.5l-217-217a66.407 66.407 0 0 1 .606-93.304 66.413 66.413 0 0 1 93.304-.606l216.99 217Zm0-123.1a65.931 65.931 0 0 1-44.17 19.38L490.55 337.09h130a66.412 66.412 0 0 1 46.94 113.36l-.03.04Z" fill="#fff"/></g><defs><clipPath id="a"><path fill="#fff" d="M0 0h1024v1024H0z"/></clipPath></defs></svg>

<svg width="1024" height="1024" viewBox="0 0 1024 1024" fill="none" xmlns="http://www.w3.org/2000/svg">
<g clip-path="url(#clip0_2_3465)">
<path d="M512 1024C794.77 1024 1024 794.77 1024 512C1024 229.23 794.77 0 512 0C229.23 0 0 229.23 0 512C0 794.77 229.23 1024 512 1024Z" fill="#9ABEFF"/>
<path d="M729 403.5C729 374.724 717.569 347.127 697.221 326.779C676.874 306.431 649.276 295 620.5 295H403.5C389.25 294.981 375.136 297.777 361.97 303.229C348.804 308.681 336.845 316.682 326.78 326.77C306.435 347.121 295.006 374.719 295.006 403.495C295.006 432.271 306.435 459.869 326.78 480.22L365.42 518.86C341.612 527.782 321.691 544.78 309.135 566.888C296.579 588.997 292.184 614.812 296.718 639.83C301.251 664.848 314.425 687.48 333.941 703.777C353.457 720.073 378.075 729 403.5 729H620.5C634.751 729.019 648.866 726.221 662.032 720.767C675.198 715.313 687.157 707.311 697.22 697.22C717.568 676.871 728.999 649.272 728.999 620.495C728.999 591.718 717.568 564.119 697.22 543.77L658.58 505.13C679.267 497.371 697.093 483.483 709.676 465.322C722.26 447.162 729.001 425.594 729 403.5ZM356.56 667.5C347.443 658.381 341.178 646.805 338.53 634.184C335.883 621.564 336.967 608.446 341.651 596.432C346.336 584.418 354.417 574.027 364.908 566.529C375.399 559.032 387.847 554.751 400.73 554.21L533.46 686.92H403.46C394.738 686.939 386.099 685.229 378.042 681.889C369.986 678.548 362.671 673.644 356.52 667.46L356.56 667.5ZM667.46 573.59C673.627 579.756 678.518 587.075 681.855 595.131C685.193 603.187 686.911 611.822 686.911 620.542C686.912 629.261 685.195 637.896 681.858 645.952C678.522 654.009 673.631 661.329 667.465 667.495C661.3 673.661 653.98 678.553 645.924 681.89C637.868 685.227 629.234 686.945 620.514 686.946C611.794 686.946 603.159 685.229 595.103 681.893C587.047 678.556 579.727 673.666 573.56 667.5L356.56 450.5C344.373 437.992 337.603 421.187 337.717 403.724C337.83 386.26 344.818 369.545 357.166 357.196C369.515 344.847 386.231 337.86 403.694 337.746C421.157 337.633 437.962 344.403 450.47 356.59L667.46 573.59ZM667.46 450.49C655.713 462.297 639.933 469.221 623.29 469.87L490.55 337.09H620.55C633.681 337.096 646.516 340.994 657.433 348.292C668.349 355.59 676.856 365.961 681.88 378.093C686.904 390.225 688.218 403.575 685.657 416.454C683.096 429.333 676.774 441.163 667.49 450.45L667.46 450.49Z" fill="white"/>
</g>
<defs>
<clipPath id="clip0_2_3465">
<rect width="1024" height="1024" fill="white"/>
</clipPath>
</defs>
</svg>
